src/Stylish/96/apps/gmail.svg

<?xml version="1.0" encoding="UTF-8" standalone="no"?>
<!-- Created with Inkscape (http://www.inkscape.org/) -->

<svg
   width="96"
   height="96"
   viewBox="0 0 96 96"
   version="1.1"
   id="svg5"
   inkscape:version="1.2.1 (9c6d41e410, 2022-07-14)"
   sodipodi:docname="gmail.svg"
   xmlns:inkscape="http://www.inkscape.org/namespaces/inkscape"
   xmlns:sodipodi="http://sodipodi.sourceforge.net/DTD/sodipodi-0.dtd"
   xmlns="http://www.w3.org/2000/svg"
   xmlns:svg="http://www.w3.org/2000/svg">
  <sodipodi:namedview
     id="namedview7"
     pagecolor="#ffffff"
     bordercolor="#000000"
     borderopacity="0.25"
     inkscape:showpageshadow="2"
     inkscape:pageopacity="0.0"
     inkscape:pagecheckerboard="0"
     inkscape:deskcolor="#d1d1d1"
     inkscape:document-units="px"
     showgrid="false"
     inkscape:zoom="8.2708333"
     inkscape:cx="36.634761"
     inkscape:cy="48"
     inkscape:window-width="1920"
     inkscape:window-height="1006"
     inkscape:window-x="0"
     inkscape:window-y="0"
     inkscape:window-maximized="1"
     inkscape:current-layer="svg5" />
  <defs
     id="defs2" />
  <path
     d="M 39,7 C 11.696429,7 6,12.819451 6,40 v 18 c 0,27.180549 5.696429,33 33,33 H 57 C 84.30357,91 90,85.180549 90,58 V 40 C 90,12.819451 84.30357,7 57,7"
     style="opacity:0.2;fill:#000000;stroke-width:3;stroke-linecap:round;stroke-linejoin:round"
     id="path563" />
  <path
     id="path530"
     style="fill:#fafafa;fill-opacity:1;stroke-width:3;stroke-linecap:round;stroke-linejoin:round"
     d="M 39,6 C 11.696456,6 6,11.819478 6,39 v 18 c 0,27.180525 5.696456,32.999995 33,32.999995 h 18 c 27.303546,0 33.000002,-5.81947 33.000002,-32.999995 V 39 C 90.000002,11.819478 84.303546,6 57,6 Z" />
  <path
     id="path523"
     style="fill:#4285f4;stroke-width:1.5"
     d="M 17.999997,34.601564 V 66.910157 C 17.999997,69.169826 19.811202,71 22.048824,71 h 7.951173 V 43.689452 Z" />
  <path
     id="path391"
     style="fill:#34a853;stroke-width:1.5"
     d="m 77.999997,34.601564 -12,9.087888 V 71 h 7.951173 c 2.237619,0 4.048827,-1.830177 4.048827,-4.089843 z" />
  <path
     d="M 27.72,43.867691 V 27.237995 L 48,42.363638 68.28,27.237995 V 43.867691 L 48,58.997672 Z"
     style="fill:#ea4335;stroke-width:1.5"
     id="path457"
     sodipodi:nodetypes="ccccccc" />
  <path
     id="path424"
     style="fill:#fbbc04;stroke-width:1.5"
     d="m 71.900388,26 c -1.231782,2.7e-5 -2.494377,0.383202 -3.621093,1.236327 l -2.279298,1.728516 V 45.59375 l 12,-9.087891 V 32.146484 C 77.999997,28.51361 75.04827,25.999931 71.900388,26 Z" />
  <path
     id="path490"
     style="fill:#c5221f;stroke-width:1.5"
     d="m 24.099606,26 c -3.147885,-6.9e-5 -6.099609,2.51361 -6.099609,6.146484 v 4.361841 l 12,9.087888 V 28.964843 L 27.720699,27.236327 C 26.59398,26.383199 25.331388,26.000027 24.099606,26 Z"
     sodipodi:nodetypes="ssccccs" />
</svg>

<?xml version="1.0" encoding="UTF-8" standalone="no"?>
<!-- Created with Inkscape (http://www.inkscape.org/) -->

<svg
   width="96"
   height="96"
   viewBox="0 0 96 96"
   version="1.1"
   id="svg5"
   inkscape:version="1.4.4 (dcaf3e7d9e, 2026-05-05)"
   sodipodi:docname="gmail.svg"
   xmlns:inkscape="http://www.inkscape.org/namespaces/inkscape"
   xmlns:sodipodi="http://sodipodi.sourceforge.net/DTD/sodipodi-0.dtd"
   xmlns:xlink="http://www.w3.org/1999/xlink"
   xmlns="http://www.w3.org/2000/svg"
   xmlns:svg="http://www.w3.org/2000/svg">
  <sodipodi:namedview
     id="namedview7"
     pagecolor="#ffffff"
     bordercolor="#000000"
     borderopacity="0.25"
     inkscape:showpageshadow="2"
     inkscape:pageopacity="0.0"
     inkscape:pagecheckerboard="0"
     inkscape:deskcolor="#d1d1d1"
     inkscape:document-units="px"
     showgrid="false"
     inkscape:zoom="8.6458333"
     inkscape:cx="48"
     inkscape:cy="47.884338"
     inkscape:window-width="1920"
     inkscape:window-height="1010"
     inkscape:window-x="0"
     inkscape:window-y="0"
     inkscape:window-maximized="1"
     inkscape:current-layer="svg5" />
  <defs
     id="defs2">
    <linearGradient
       inkscape:collect="always"
       xlink:href="#linearGradient8"
       id="linearGradient18"
       x1="72.041374"
       y1="32.146484"
       x2="72.041374"
       y2="71"
       gradientUnits="userSpaceOnUse" />
    <linearGradient
       id="linearGradient8"
       inkscape:collect="always">
      <stop
         style="stop-color:#60d673;stop-opacity:1;"
         offset="0"
         id="stop9" />
      <stop
         style="stop-color:#42c868;stop-opacity:1;"
         offset="0.17347147"
         id="stop11" />
      <stop
         style="stop-color:#0ebc5f;stop-opacity:1;"
         offset="0.38839447"
         id="stop12" />
      <stop
         style="stop-color:#00a9bb;stop-opacity:1;"
         offset="0.6165421"
         id="stop13" />
      <stop
         style="stop-color:#3c90ff;stop-opacity:1;"
         offset="0.9375"
         id="stop14" />
      <stop
         style="stop-color:#3186ff;stop-opacity:1;"
         offset="1"
         id="stop10" />
    </linearGradient>
    <linearGradient
       inkscape:collect="always"
       xlink:href="#linearGradient1"
       id="linearGradient16"
       x1="18"
       y1="42.499023"
       x2="78"
       y2="42.499023"
       gradientUnits="userSpaceOnUse" />
    <linearGradient
       id="linearGradient1"
       inkscape:collect="always">
      <stop
         style="stop-color:#ff63a0;stop-opacity:1;"
         offset="0.08305594"
         id="stop1" />
      <stop
         style="stop-color:#fc413d;stop-opacity:1;"
         offset="0.30268341"
         id="stop3" />
      <stop
         style="stop-color:#fc413d;stop-opacity:1;"
         offset="0.50376475"
         id="stop4" />
      <stop
         style="stop-color:#fc413d;stop-opacity:1;"
         offset="0.64855641"
         id="stop5" />
      <stop
         style="stop-color:#fc5c30;stop-opacity:1;"
         offset="0.72273552"
         id="stop6" />
      <stop
         style="stop-color:#feb10c;stop-opacity:1;"
         offset="0.85556501"
         id="stop7" />
      <stop
         style="stop-color:#ffd911;stop-opacity:1;"
         offset="0.90811819"
         id="stop8" />
      <stop
         style="stop-color:#ffdb0f;stop-opacity:1;"
         offset="0.96324164"
         id="stop2" />
    </linearGradient>
  </defs>
  <path
     d="m 39.000002,7.000003 c -27.303571,0 -33,5.819451 -33,33 v 18 c 0,27.180548 5.696429,32.999998 33,32.999998 H 57 c 27.30357,0 33,-5.81945 33,-32.999998 v -18 c 0,-27.180549 -5.69643,-33 -33,-33"
     style="opacity:0.2;fill:#000000;stroke-width:3;stroke-linecap:round;stroke-linejoin:round"
     id="path563" />
  <path
     id="path530"
     style="fill:#fafafa;fill-opacity:1;stroke-width:3;stroke-linecap:round;stroke-linejoin:round"
     d="m 39,6.000003 c -27.303544,0 -33,5.819478 -33,33 v 17.999998 c 0,27.180526 5.696456,32.999996 33,32.999996 H 56.999998 C 84.303544,89.999997 90,84.180527 90,57.000001 V 39.000003 c 0,-27.180522 -5.696456,-33 -33.000002,-33 z" />
  <path
     id="path523"
     style="fill:#fc413d;fill-opacity:1;stroke-width:1.5"
     d="M 18,34.601564 V 66.910157 C 18,69.169826 19.811205,71 22.048827,71 H 30 V 43.689452 Z" />
  <path
     id="path391"
     style="fill:url(#linearGradient18);stroke-width:1.5"
     d="M 78,34.601564 66,43.689452 V 71 h 7.951173 C 76.188792,71 78,69.169823 78,66.910157 Z" />
  <path
     id="path457"
     style="fill:url(#linearGradient16);stroke-width:1.5"
     d="M 24.099609,26 C 20.951724,25.999931 18,28.51361 18,32.146484 v 4.361328 c 9.930339,7.589554 30,22.490235 30,22.490235 0,0 20.036153,-14.946325 30,-22.492188 V 32.146484 C 78,28.51361 75.048273,25.999931 71.900391,26 c -1.231782,2.7e-5 -2.494378,0.383203 -3.621094,1.236328 L 66,28.964844 48,42.363281 30,28.966797 v -0.002 L 27.720703,27.236328 C 26.593984,26.3832 25.331391,26.000027 24.099609,26 Z" />
</svg>
